X:1
T:Title
%%score { 1 | 2 }
L:1/8
M:3/4
K:Db
V:1 treble nm="Grand Piano"
V:2 bass 
V:1
 z2 z2[Q:1/4=100] [DF]>[EG] | [FA]3 F [GB]>[FA] | [FA] [EG]3 [CE]>[DF] | [EG]3 [CE] [FA]>[EG] | %4
[M:2/4] [DF]4 |[M:1/4] [DF]>[EG] |[M:3/4] [FA]3 F [GB]>[FA] | [FA] [Fd]3 [FA]>[_FB] | c3 B F=G | %9
[M:2/4] [CA]4 |[M:1/4] [GB]>[FA] |[M:3/4] [EG]>[=DF] [EG]2 [FA]>[EG] | F>_F =F2 [FA]>[DF] | %13
 [EG]>[=DF] [EG][FA] [Ac][GB] |[M:2/4] [_FB]2 [=FA]2 |[M:1/4] [DF]>[EG] | %16
[M:3/4] [FA][DF] [Fd]3 [Ac] | [Ac] B3 B>B | A>F GE [CA]>D |[M:2/4] D4 |[M:1/4] [FA]>[FA] | %21
[M:3/4] A3 A Bc | [Ge] [Fd]3 [DF]>[GB] | [FA][EG] [EG]3 [CA] |[M:2/4] [EG] [DF]3 | %25
[M:1/4] [DF]>[FA] |[M:3/4] [Fd]3 [Ac] [Ae][Ad] |[M:15/16] dB/- B3- BB/-BB/ | %28
[M:25/32] A>FGE[CA]3/2D3/4[Q:1/4=98][Q:1/4=96][Q:1/4=94][Q:1/4=92][Q:1/4=90][Q:1/4=88][Q:1/4=85][Q:1/4=83][Q:1/4=81][Q:1/4=79][Q:1/4=77] | %29
[M:2/4] D4 |] %30
V:2
 z2 z2 [D,A,]>[D,A,] | [D,D]3 [D,D] [D,D]>[D,A,] | [A,,A,] [A,,A,]3 [A,,A,]>[A,,A,] | %3
 [A,,A,]3 [A,,A,] [A,,A,]>[A,,A,] |[M:2/4] [D,A,]4 |[M:1/4] [D,A,]>[D,A,] | %6
[M:3/4] [D,D]3 [D,D] [D,D]>[D,D] | [D,D] [D,A,]3 [D,A,]>[D,A,] | [E,A,E]3 [E,A,D] [E,B,D][E,B,D] | %9
[M:2/4] [A,,A,]4 |[M:1/4] [A,,A,]>[A,,A,] |[M:3/4] [A,,A,]>[A,,A,] [A,,A,]2 [A,,A,]>[C,A,] | %12
 [D,A,D]>[D,=G,D] [D,A,D]2 [D,A,]>[D,A,] | [A,,A,]>[A,,A,] [A,,A,][A,,A,] [A,,A,][C,A,] | %14
[M:2/4] [D,=G,]2 [D,A,]2 |[M:1/4] [D,A,]>[D,A,] |[M:3/4] [D,D][D,A,] [D,A,]3 [F,D] | %17
 [G,D][K:treble] [G,DG]3 [G,DG]>[=G,D_F] | [A,DF]>[A,D][K:bass] [A,E][A,C] [A,,G,]>[D,F,] | %19
[M:2/4] [D,F,]4 |[M:1/4] [D,D]>[D,D] |[M:3/4] [A,CE]3 [A,CE] [=G,DE][_G,A,E] | %22
 [D,A,] [D,A,]3 [D,A,]>[D,A,] | [A,,A,][A,,A,] [A,,A,]3 [A,,A,] |[M:2/4] [D,A,] [D,A,]3 | %25
[M:1/4] [D,A,]>[D,A,] |[M:3/4] [D,A,]3 [F,D] [F,D][F,_C] | %27
[M:15/16][K:treble] [G,B,G][G,DG]/- [G,DG]3- [G,DG][G,DG]/-[G,DG][=G,D_F]/ | %28
[M:25/32] [A,DF]>[K:bass][A,D][A,E][A,C][A,,G,]3/2[D,F,]3/4 |[M:2/4] [D,F,]4 |] %30

